svgs/thin/arrow-down-9-1.svg

<svg xmlns="http://www.w3.org/2000/svg" viewBox="0 0 512 512"><!--! Font Awesome Pro 6.3.0 by @fontawesome - https://fontawesome.com License - https://fontawesome.com/license (Commercial License) Copyright 2023 Fonticons, Inc. --><path d="M210.1 370.7L136 451.5V40C136 35.59 132.4 32 128 32S120 35.59 120 40v411.5l-74.1-80.85c-1.596-1.719-3.752-2.594-5.908-2.594c-1.938 0-3.875 .6875-5.406 2.094c-3.25 3.002-3.469 8.064-.5 11.32l88 96.02c3.062 3.312 8.75 3.312 11.81 0l88-96.02c2.969-3.252 2.75-8.314-.5-11.32C218.2 367.2 213.1 367.4 210.1 370.7zM416 464h-24V296c0-2.781-1.438-5.344-3.797-6.812c-2.359-1.438-5.312-1.594-7.781-.3438l-32 16c-3.953 1.969-5.547 6.781-3.578 10.72c1.984 3.969 6.75 5.531 10.73 3.594L376 308.9V464H352c-4.422 0-8 3.594-8 8S347.6 480 352 480H416c4.422 0 8-3.594 8-8S420.4 464 416 464zM376 32c-39.7 0-72 32.31-72 72s32.3 72 72 72c22.73 0 42.79-10.8 56-27.31V176c0 30.88-25.12 56-56 56H352c-4.422 0-8 3.594-8 8S347.6 248 352 248h24C415.7 248 448 215.7 448 176V104C448 64.31 415.7 32 376 32zM376 160C345.1 160 320 134.9 320 104s25.12-56 56-56s56 25.12 56 56S406.9 160 376 160z"/></svg>

<svg xmlns="http://www.w3.org/2000/svg" viewBox="0 0 512 512"><!-- Font Awesome Pro 6.0.0-alpha2 by @fontawesome - https://fontawesome.com License - https://fontawesome.com/license (Commercial License) --><path d="M210.098 370.676L136 451.529V40.002C136 35.594 132.406 32 128 32S120 35.594 120 40.002V451.529L45.904 370.676C44.309 368.957 42.152 368.082 39.996 368.082C38.059 368.082 36.121 368.77 34.59 370.176C31.34 373.178 31.121 378.24 34.09 381.492L122.094 477.516C125.156 480.828 130.844 480.828 133.906 477.516L221.91 381.492C224.879 378.24 224.66 373.178 221.41 370.176C218.16 367.176 213.098 367.395 210.098 370.676ZM416 464H392V296C392 293.219 390.562 290.656 388.203 289.188C385.844 287.75 382.891 287.594 380.422 288.844L348.422 304.844C344.469 306.812 342.875 311.625 344.844 315.562C346.828 319.531 351.594 321.094 355.578 319.156L376 308.938V464H352C347.578 464 344 467.594 344 472S347.578 480 352 480H416C420.422 480 424 476.406 424 472S420.422 464 416 464ZM376 32C336.297 32 304 64.312 304 104S336.297 176 376 176C398.734 176 418.795 165.197 432 148.689V176C432 206.875 406.875 232 376 232H352C347.578 232 344 235.594 344 240S347.578 248 352 248H376C415.703 248 448 215.688 448 176V104C448 64.312 415.703 32 376 32ZM376 160C345.125 160 320 134.875 320 104S345.125 48 376 48S432 73.125 432 104S406.875 160 376 160Z"/></svg>
